src/assets/icons/chart.svg

<svg width="32" height="32" viewBox="0 0 32 32" fill="none"
  xmlns="http://www.w3.org/2000/svg">
  <path d="M6.5 31H4.5C4.10218 31 3.72064 30.842 3.43934 30.5607C3.15804 30.2794 3 29.8978 3 29.5V20.5C3 20.1022 3.15804 19.7206 3.43934 19.4393C3.72064 19.158 4.10218 19 4.5 19H6.5C6.89782 19 7.27936 19.158 7.56066 19.4393C7.84196 19.7206 8 20.1022 8 20.5V29.5C8 29.8978 7.84196 30.2794 7.56066 30.5607C7.27936 30.842 6.89782 31 6.5 31ZM20.5 31H18.5C18.1022 31 17.7206 30.842 17.4393 30.5607C17.158 30.2794 17 29.8978 17 29.5V14.5C17 14.1022 17.158 13.7206 17.4393 13.4393C17.7206 13.158 18.1022 13 18.5 13H20.5C20.8978 13 21.2794 13.158 21.5607 13.4393C21.842 13.7206 22 14.1022 22 14.5V29.5C22 29.8978 21.842 30.2794 21.5607 30.5607C21.2794 30.842 20.8978 31 20.5 31ZM27.5 31H25.5C25.1022 31 24.7206 30.842 24.4393 30.5607C24.158 30.2794 24 29.8978 24 29.5V7.5C24 7.10218 24.158 6.72064 24.4393 6.43934C24.7206 6.15804 25.1022 6 25.5 6H27.5C27.8978 6 28.2794 6.15804 28.5607 6.43934C28.842 6.72064 29 7.10218 29 7.5V29.5C29 29.8978 28.842 30.2794 28.5607 30.5607C28.2794 30.842 27.8978 31 27.5 31ZM13.5 31H11.5C11.1022 31 10.7206 30.842 10.4393 30.5607C10.158 30.2794 10 29.8978 10 29.5V2.5C10 2.10218 10.158 1.72064 10.4393 1.43934C10.7206 1.15804 11.1022 1 11.5 1H13.5C13.8978 1 14.2794 1.15804 14.5607 1.43934C14.842 1.72064 15 2.10218 15 2.5V29.5C15 29.8978 14.842 30.2794 14.5607 30.5607C14.2794 30.842 13.8978 31 13.5 31Z" fill="currentColor" />
</svg>

<svg xmlns="http://www.w3.org/2000/svg" width="26" height="30" viewBox="0 0 26 30">
  <path id="chart" d="M6.5,31h-2A1.5,1.5,0,0,1,3,29.5v-9A1.5,1.5,0,0,1,4.5,19h2A1.5,1.5,0,0,1,8,20.5v9A1.5,1.5,0,0,1,6.5,31Zm14,0h-2A1.5,1.5,0,0,1,17,29.5v-15A1.5,1.5,0,0,1,18.5,13h2A1.5,1.5,0,0,1,22,14.5v15A1.5,1.5,0,0,1,20.5,31Zm7,0h-2A1.5,1.5,0,0,1,24,29.5V7.5A1.5,1.5,0,0,1,25.5,6h2A1.5,1.5,0,0,1,29,7.5v22A1.5,1.5,0,0,1,27.5,31Zm-14,0h-2A1.5,1.5,0,0,1,10,29.5V2.5A1.5,1.5,0,0,1,11.5,1h2A1.5,1.5,0,0,1,15,2.5v27A1.5,1.5,0,0,1,13.5,31Z" transform="translate(-3 -1)" fill="#e8e8e8"/>
</svg>
